X: 1
T:Calliope House
M:6/8
L:1/8
R:Jig
K:D
A|"D"dAA fAA|"A"eAA "D"fAA|"G"Bee e2d|"A"efd B2{d}B|!
"D"ABA A2F|"D"A2B d2e|1"D"f2a fed|"A"e3 e2:||2"D"faf "A"edB|"D"d3-d2||!
f|"D"a3 faa|"A"eaa "D"faa|"G"g3 fgf|"A"efe edB|!
"D"ABA A2 F|"D"A2B d2e|1"D"f2a fed|"A"e3:||2"D"faf "A"edB|"D"d3||
|
